src/pos-icons/power-socket.svg

<svg height="24" viewBox="0 0 24 24" width="24" xmlns="http://www.w3.org/2000/svg"><path d="m15 15h2v-4h-2m-8 4h2v-4h-2m4 2h2v-4h-2m-2.17-2h6.37l3.8 3.8v6.2h-14v-6.2m3-5.8-5 5v9h18v-9l-5-5z"/></svg>

<?xml version="1.0" encoding="UTF-8"?><!DOCTYPE svg PUBLIC "-//W3C//DTD SVG 1.1//EN" "http://www.w3.org/Graphics/SVG/1.1/DTD/svg11.dtd"><svg xmlns="http://www.w3.org/2000/svg" xmlns:xlink="http://www.w3.org/1999/xlink" version="1.1" id="mdi-power-socket" width="24" height="24" viewBox="0 0 24 24"><path d="M15,15H17V11H15M7,15H9V11H7M11,13H13V9H11M8.83,7H15.2L19,10.8V17H5V10.8M8,5L3,10V19H21V10L16,5H8Z" /></svg>
